X:1
T:We May Sing Sweet Songs in Heaven
T:John Henry Kurzenknabe
T:We May Sing Sweet Songs in Heaven
T:Public Domain
T:Public Domain
T:Public Domain
C:John Henry Kurzenknabe
Z:Public Domain
%%score ( 1 2 ) ( 3 4 )
L:1/8
M:4/4
K:A
V:1 treble 
V:2 treble 
V:3 bass 
V:4 bass 
V:1
 [CE][CE] | [CA][CA][Ec][DB] [CA][CA][CA][EG] | [DF][FA][FA][DF] [CE]2 [CE][CE] | %3
w: 1.~We may|sing sweet songs in Heav- en When the|crown of gold is won, And the|
w: 2.~We may|sing in Heav’n for- ev- er, With the|lov- ing, blood- washed band, When from|
w: 3.~In the|land of an- gels sing- ing, We may|join the songs of love; When the|
 [EA][EA][EA][EB] [Ec][Ec][Ec][Ee] | [Ee][Ac][Ac]A [GB]2 [Gc][GB] | %5
w: harp to us is giv- en For our|earth- ly work, well done; We may|
w: charms of earth we sev- er, And go|up to take the Land: There, with|
w: courts of bliss are ring- ing With the|spir- it choir a- bove: When the|
 [FA][FA][EG][DF] [CE][CE][EA][EB] | [Ec][Ec][Ed][Ec] [EB]2 [Ec][Ee] | %7
w: the Shep- herd call- ing For the fee-|ble lambs a- stray In the storm|
w: ry shin- ing o’er us, We may see|the bliss- ful fold; And the Ci-|
w: herd’s voice is call- ing For the pre-|cious lambs a- stray In the storm|
 [Fe][Fd][FB][Fd] [Fd][Ec][EA][Ec] | [Ec][DB][CA][DG] [CA]2 ||"^Refrain" [Ec][Ec] | %10
w: of wrath ap- pall- ing, At the com-|ing Judg- ment day. *||
w: ty fair be- fore us, As we near|the gates of gold. We|may meet|
w: of wrath ap- pall- ing— Then will come|the Judg- ment Day. *||
 [Fd][Fd][Fd][Fd] [Fd][Fd][FA][AB] | [Ac][Ac][Ac][Ac] [Ac]2 [Ac][Ae] | %12
w: ||
w: be- yond the riv- er With the lambs|from earth a- stray; When we dwell|
w: ||
 [Fe][Fd][FB][Fd] [Fd][Ec][EA][Ec] | [Ec][DB][CA][DG] [CA]2 |] %14
w: ||
w: with Christ, life’s Giv- er, At the com-|ing Judg- ment Day. *|
w: ||
V:2
 x2 | x8 | x8 | x8 | x3 A x4 | x8 | x8 | x8 | x6 || x2 | x8 | x8 | x8 | x6 |] %14
w: ||||hear||||||||||
w: ||||glo-||||||||||
w: ||||Shep-||||||||||
V:3
 [A,,A,][A,,A,] | [A,,A,][A,,A,][A,,A,][A,,A,] [A,,A,][A,,A,][A,,A,][C,A,] | %2
 [D,A,][D,A,][D,A,][D,A,] [A,,A,]2 [A,,A,][A,,A,] | [C,A,][C,A,][C,A,][E,G,] A,A,A,[A,C] | %4
 [A,C][A,E][A,E][C,E] [E,E]2 [E,E][E,D] | [F,C][F,C][C,C][D,A,] [A,,A,][A,,A,][C,A,][E,G,] | %6
 A,A,[G,B,]A, [E,G,]2 A,[A,C] | [D,D][D,D][D,D][D,A,] [A,,A,][A,,A,][C,A,][A,,A,] | %8
 [E,A,][E,G,][E,A,][E,B,] [A,,A,]2 || [A,,A,][A,,A,] | %10
 [C,A,][C,A,][C,A,][C,A,] [C,A,][C,A,][D,D][D,F] | [A,E][A,E][A,E][A,E] [A,E]2 [A,E][A,C] | %12
 [D,D][D,D][D,D][D,A,] [A,,A,][A,,A,][C,A,][A,,A,] | [E,G,][E,G,][E,A,][E,B,] [A,,A,]2 |] %14
V:4
 x2 | x8 | x8 | x4 A,A,A, x | x8 | x8 | A,A,A, x A, x3 | x8 | x6 || x2 | x8 | x8 | x8 | x6 |] %14

